X:249
T:B249-  Jockey's gone to the wood
Q:1/4=120
L:1/4
M:3/4
K:C
cA/4E3/4G|d3/2e/2 d3/4B/4|cG/4E3/4G|c3:|\
eg/4e3/4a|g3/2f/2e|d3/4e/4 d/4B3/4 c3/4d/4|\
B3/2G/2 A/2B/2|c3/4d/4 c/2B/2A|\
f3/4g/4 f3/4e/4 d3/4B/4|.cG/4E3/4G|.c3|]

